dist/svgs/gear-full.svg

<!-- Generated by IcoMoon.io -->
<svg version="1.1" xmlns="http://www.w3.org/2000/svg" width="24" height="24" viewBox="0 0 24 24">
<title>gear-full</title>
<path d="M23 14v-4h-3.262c-0.189-0.732-0.477-1.422-0.852-2.058l2.306-2.306-2.828-2.828-2.306 2.306c-0.636-0.375-1.326-0.663-2.058-0.852v-3.262h-4v3.262c-0.732 0.189-1.422 0.477-2.058 0.852l-2.306-2.306-2.828 2.828 2.306 2.306c-0.375 0.636-0.663 1.326-0.852 2.058h-3.262v4h3.262c0.189 0.732 0.477 1.422 0.852 2.058l-2.306 2.306 2.828 2.828 2.306-2.306c0.635 0.375 1.326 0.663 2.058 0.852v3.262h4v-3.262c0.732-0.189 1.422-0.477 2.058-0.852l2.306 2.306 2.828-2.828-2.306-2.306c0.375-0.635 0.663-1.326 0.852-2.058h3.262zM12 15c-1.657 0-3-1.343-3-3s1.343-3 3-3 3 1.343 3 3-1.343 3-3 3z"></path>
</svg>

<svg xmlns="http://www.w3.org/2000/svg" width="24" height="24" viewBox="0 0 24 24"><title>gear-full</title><path d="M23 14v-4h-3.262a7.968 7.968 0 0 0-.852-2.058l2.306-2.306-2.828-2.828-2.306 2.306A7.968 7.968 0 0 0 14 4.262V1h-4v3.262a7.968 7.968 0 0 0-2.058.852L5.636 2.808 2.808 5.636l2.306 2.306A7.968 7.968 0 0 0 4.262 10H1v4h3.262c.189.732.477 1.422.852 2.058l-2.306 2.306 2.828 2.828 2.306-2.306a7.953 7.953 0 0 0 2.058.852V23h4v-3.262a7.968 7.968 0 0 0 2.058-.852l2.306 2.306 2.828-2.828-2.306-2.306A7.953 7.953 0 0 0 19.738 14H23zm-11 1a3 3 0 1 1 0-6 3 3 0 0 1 0 6z"/></svg>
